svgs/arrows/switch-vertical-02.svg

<svg fill="none" xmlns="http://www.w3.org/2000/svg" viewBox="0 0 24 24"><path d="M7 4v16m0 0-4-4m4 4 4-4m6 4V4m0 0-4 4m4-4 4 4" stroke="#1C1D20" stroke-width="1.5" stroke-linecap="round" stroke-linejoin="round"/></svg>

<svg width="24" height="24" viewBox="0 0 24 24" fill="none" xmlns="http://www.w3.org/2000/svg">
<path d="M7 4V20M7 20L3 16M7 20L11 16M17 20V4M17 4L13 8M17 4L21 8" stroke="#1C1D20" stroke-width="1.5" stroke-linecap="round" stroke-linejoin="round"/>
</svg>
